svg/u1f419.svg

<svg viewBox="0 0 128 128" xmlns="http://www.w3.org/2000/svg">
  <defs/>
  <path d="M88.07,41.61 C88.07,41.61 119.56,36.17 121.39,38.56 C123.22,40.95 123.68,48.15 122.7,52.22 C121.71,56.3 118.05,62.59 107.35,65.55 C98.36,68.03 95.34,68.04 90.69,70.81 C86.98,73.02 81.59,88.92 80.74,91.18 C79.89,93.44 73.7,102.3 60.75,100.47 C48.1,98.67 40.34,86.8 43.02,75.12 C45.7,63.44 88.07,41.61 88.07,41.61 Z" fill="#A92813"/>
  <path d="M65.12,70.75 C65.12,70.75 47.52,71.17 42.03,65.4 C36.54,59.63 30.77,46.82 29.22,36.54 C27.67,26.26 22.6,20.21 20.21,18.66 C17.82,17.11 15.35,16.69 15.07,18.24 C14.79,19.79 19.14,24.97 19.93,27.39 C21.9,33.44 20.81,47.52 22.46,54 C24.15,60.63 25.49,62.9 29.22,67.23 C32,70.46 36.4,73.57 36.4,73.57 C36.4,73.57 19.37,77.65 14.58,72.58 C9.79,67.51 10.36,63.29 10.78,61.18 C11.2,59.07 14.58,53.3 13.6,52.73 C12.61,52.17 6.42,56.95 5.58,63.29 C4.74,69.63 6.83,74.91 10.37,78.78 C14.98,83.81 23.71,84.66 28.78,84.24 C33.85,83.82 38.95,82.16 38.95,82.16 C38.95,82.16 38.81,102.85 28.95,102.71 C21.49,102.6 20.64,100.18 19.94,98.91 C19.24,97.64 18.51,96.59 18.88,100.63 C19.13,103.3 22.26,111.54 32.08,109.43 C40.4,107.64 45.55,99.99 47.25,97.64 C49.12,95.07 53.44,89.19 53.44,89.19 C53.44,89.19 51.77,100.62 52.13,108.71 C52.28,112.09 53.16,120.02 59.36,122.69 C65.55,125.36 73.47,122.02 74.88,116.67 C76.29,111.32 73.44,108.33 73.01,107.91 C72.58,107.49 70.62,113.96 70.62,113.96 C70.62,113.96 65.55,117.34 63.58,114.95 C61.61,112.56 64,93.97 64.28,90.03 C64.56,86.09 68.64,89.89 70.05,91.86 C71.46,93.83 73.75,98.72 77.23,102.14 C82.97,107.79 89.2,110.24 98.05,109.56 C107.27,108.85 113.03,105.23 116.12,100.59 C119.22,95.94 119.89,91.33 118.9,90.49 C117.91,89.65 111.16,97.78 109.75,98.9 C108.34,100.03 94.26,98.9 92.29,98.9 C90.32,98.9 89.9,95.38 89.9,95.38 C89.9,95.38 97.92,93.27 100.74,91.16 C103.56,89.05 111.3,84.61 111.86,72.01 C112.29,62.29 111.86,36.2 112.85,31.98 C113.84,27.76 117.59,24.19 116.74,22.78 C115.89,21.37 112.14,23.72 111.58,24.14 C111.02,24.56 105.1,27.38 104.96,32.45 C104.82,37.52 103.13,73.7 100.31,76.65 C97.49,79.61 88.34,85.52 83.28,84.82 C78.21,84.13 65.12,70.75 65.12,70.75 Z" fill="#FFA8A8"/>
  <path d="M118.48,90.32 C116.79,90.18 115.38,92.43 113.69,93.7 C112,94.97 108.62,98.2 99.75,97.92 C90.88,97.64 84.97,87.92 84.97,87.92 C84.97,87.92 87.79,88.2 91.02,87.36 C94.26,86.52 99.4,83.77 102.63,77.93 C106.48,70.99 105.62,53.86 105.66,46.25 C105.71,35.74 109.13,30.15 110.45,28.37 C112.7,25.32 116.27,23.58 116.41,22.6 C116.55,21.61 111.95,22.18 109.32,23.73 C106.4,25.45 104.96,27.39 104.96,27.39 C104.96,27.39 98.2,26.69 94.54,26.69 C90.88,26.69 83.85,27.23 77.72,28.66 C70.19,30.42 64.56,34.71 63.01,35 C63.01,35 58.01,30.03 49.78,35.7 C41.19,41.61 47.39,54.14 47.39,54.14 C47.39,54.14 46.97,55.95 44.72,56.53 C41.48,57.37 36.63,54.21 34.87,48.58 C33.39,43.83 33.74,37.25 32.34,29.65 C30.93,22.05 26.85,18.67 23.19,16.98 C19.53,15.29 14.88,16.84 15.59,17.82 C16.29,18.81 21.64,20.64 24.88,26.55 C28.12,32.46 26.57,46.26 30.09,56.11 C33.61,65.96 40.09,69.2 40.09,69.2 C40.09,69.2 36.43,70.89 34.46,71.31 C32.49,71.73 27.14,72.72 22.21,71.7 C17.08,70.64 13.62,66.88 13.06,62.73 C12.58,59.2 14.89,53.02 13.62,52.73 C12.35,52.44 7.81,58.92 7.67,64.27 C7.53,69.62 11.65,75.81 17.84,78.77 C24.03,81.73 36.99,79.05 36.99,79.05 C36.99,79.05 35.93,80.67 35.79,83.77 C35.65,86.87 33.82,93.8 30.51,95.81 C28.24,97.19 26.22,97.64 25.51,95.81 C24.81,93.98 28.4,93.28 28.26,91.45 C28.12,89.62 25.16,89.16 22.35,90.89 C20.45,92.05 17.28,96.24 19.25,100.74 C21.22,105.24 26.11,106.83 31.5,105.39 C39.54,103.24 48.82,88.36 51.77,85.82 C54.73,83.29 56.7,83.99 56.7,83.99 C56.7,83.99 55.29,97.08 55.57,105.95 C55.85,114.82 61.52,120.61 67.82,119.61 C74.86,118.48 75.28,112.71 74.16,109.61 C73.17,106.9 69.44,105.88 68.39,106.65 C67.02,107.66 67.93,109.32 68.46,109.78 C69.73,110.87 68.67,113.41 66.7,112.84 C64.73,112.28 66.56,105.66 67.4,102.42 C68.24,99.18 70.22,91.58 72.47,91.02 C74.72,90.46 77.01,94.41 79.09,96.79 C82.65,100.87 88.45,104.04 96.72,104.18 C107.65,104.37 114.42,97.63 115.97,95.94 C117.49,94.26 120.16,90.46 118.48,90.32 Z M93.13,60.9 C96.37,58.65 99.14,57.62 99.14,57.62 C99.14,57.62 99.23,69.16 94.82,75.12 C91.17,80.05 87.64,78.92 87.64,78.92 C87.64,78.92 91.27,76.94 91.58,73.15 C92,67.94 86.51,66.96 86.51,66.96 C86.51,66.96 90.31,62.86 93.13,60.9 Z" fill="#FF615E"/>
  <path d="M112.09,53.93 C112.09,53.93 123.68,50.48 122.55,42.03 C121.42,33.58 112.88,31.71 112.88,31.71 C112.88,31.71 111.66,36.12 111.85,41.89 C111.94,44.42 112.09,53.93 112.09,53.93 Z" fill="#FF615E"/>
  <path d="M87.53,75.6 C86.24,77.66 84.04,78.09 82.44,77.09 C80.84,76.09 80.59,74.08 81.88,72.02 C83.17,69.96 85.81,69.03 87.42,70.03 C89.03,71.03 88.82,73.54 87.53,75.6 Z" fill="#A52914"/>
  <path d="M65.33,63.5 C67.13,63.39 66.53,61.6 66.17,59.21 C65.82,56.82 64.52,50.53 68.21,46.75 C71.31,43.58 75.17,43.62 78.06,45.48 C80.24,46.89 81.23,47.45 82.07,46.4 C82.63,45.7 81.79,44.36 80.38,43.16 C78.59,41.64 72.43,38.51 66.65,43.3 C61.19,47.83 62.07,56.6 62.78,59.63 C63.5,62.66 64.2,63.57 65.33,63.5 Z" fill="#A52914"/>
  <path d="M47.66,35.13 C44,38.93 43.25,41.97 43.65,47.1 C44,51.68 45.62,55.19 47.38,54.49 C48.85,53.9 48.22,51.18 47.73,49.77 C47.24,48.36 46.39,41.6 49.98,37.94 C53.57,34.28 57.65,34.77 59.48,35.19 C61.31,35.61 62.08,36.03 63,34.98 C63.92,33.93 62.01,32.23 60.18,31.81 C58.35,31.39 52.5,30.11 47.66,35.13 Z" fill="#A52914"/>
  <path d="M82.01,57.66 C82.01,60.58 79.82,63.51 76.94,63.36 C74.12,63.22 72.79,60.5 72.79,57.59 C72.79,54.68 74.48,52.31 77.44,52.1 C80.81,51.86 82.01,54.74 82.01,57.66 Z" fill="#2C2B2D"/>
  <path d="M109.123,45.294 C110.274,45.479 111.049,46.606 110.856,47.811 C110.663,49.016 109.573,49.843 108.422,49.658 C107.272,49.474 106.496,48.347 106.689,47.142 C106.883,45.937 107.972,45.109 109.123,45.294 Z" fill="#FCD4B0"/>
  <path d="M111.447,31.474 C112.419,31.84 112.867,33.041 112.447,34.158 C112.028,35.274 110.9,35.883 109.928,35.518 C108.956,35.153 108.508,33.952 108.928,32.835 C109.347,31.718 110.476,31.109 111.447,31.474 Z" fill="#FCD4B0"/>
  <path d="M111.34,63.15 A2.58 2.67 0 1 1 106.18,63.15 A2.58 2.67 0 1 1 111.34,63.15 Z" fill="#FCD4B0"/>
  <path d="M107.443,76.392 C108.765,76.979 109.333,78.592 108.71,79.996 C108.088,81.399 106.511,82.061 105.188,81.474 C103.865,80.888 103.298,79.274 103.92,77.871 C104.543,76.467 106.12,75.805 107.443,76.392 Z" fill="#FCD4B0"/>
  <path d="M111.949,102.627 C112.357,103.587 111.819,104.736 110.747,105.192 C109.674,105.648 108.474,105.239 108.065,104.278 C107.657,103.318 108.195,102.169 109.267,101.713 C110.34,101.257 111.54,101.666 111.949,102.627 Z" fill="#FCD4B0"/>
  <path d="M99.97,106.7 A2.39 2.25 0 1 1 95.19,106.7 A2.39 2.25 0 1 1 99.97,106.7 Z" fill="#FCD4B0"/>
  <path d="M87.04,104.25 A2.3 2.39 0 1 1 82.44,104.25 A2.3 2.39 0 1 1 87.04,104.25 Z" fill="#FCD4B0"/>
  <path d="M63.39,120.82 A2.49 2.44 0 1 1 58.41,120.82 A2.49 2.44 0 1 1 63.39,120.82 Z" fill="#FCD4B0"/>
  <path d="M55.316,106.65 C55.403,107.934 54.696,109.028 53.737,109.093 C52.779,109.158 51.931,108.17 51.844,106.886 C51.757,105.602 52.464,104.508 53.422,104.443 C54.381,104.379 55.229,105.367 55.316,106.65 Z" fill="#FCD4B0"/>
  <path d="M42.524,100.823 C43.387,101.756 43.237,103.297 42.19,104.264 C41.144,105.231 39.597,105.258 38.734,104.325 C37.872,103.392 38.022,101.852 39.068,100.885 C40.115,99.918 41.662,99.89 42.524,100.823 Z" fill="#FCD4B0"/>
  <path d="M30.91,108.25 A2.58 2.35 0 1 1 25.75,108.25 A2.58 2.35 0 1 1 30.91,108.25 Z" fill="#FCD4B0"/>
  <path d="M28,82.44 A2.3 2.06 0 1 1 23.4,82.44 A2.3 2.06 0 1 1 28,82.44 Z" fill="#FCD4B0"/>
  <path d="M15,77.178 C16.076,77.8 16.465,79.141 15.869,80.174 C15.272,81.207 13.916,81.541 12.84,80.92 C11.764,80.298 11.375,78.957 11.972,77.924 C12.568,76.891 13.924,76.557 15,77.178 Z" fill="#FCD4B0"/>
  <path d="M8.636,69.662 C9.064,70.775 8.633,71.977 7.674,72.345 C6.715,72.713 5.591,72.109 5.164,70.996 C4.736,69.882 5.167,68.681 6.125,68.312 C7.084,67.944 8.208,68.548 8.636,69.662 Z" fill="#FCD4B0"/>
  <path d="M27.41,51.49 A2.21 2.3 0 1 1 22.99,51.49 A2.21 2.3 0 1 1 27.41,51.49 Z" fill="#FCD4B0"/>
  <path d="M26.13,38.32 A2.16 2.25 0 1 1 21.81,38.32 A2.16 2.25 0 1 1 26.13,38.32 Z" fill="#FCD4B0"/>
  <path d="M23.958,25.905 C24.379,26.991 23.919,28.183 22.931,28.566 C21.942,28.95 20.799,28.38 20.378,27.294 C19.956,26.207 20.416,25.016 21.405,24.632 C22.393,24.249 23.536,24.819 23.958,25.905 Z" fill="#FCD4B0"/>
</svg>

<svg viewBox="0 0 128 128" xmlns="http://www.w3.org/2000/svg">
  <path d="M88.07,41.61c0,0,31.49-5.44,33.32-3.05s2.29,9.59,1.31,13.66c-0.99,4.08-4.65,10.37-15.35,13.33 c-8.99,2.48-12.01,2.49-16.66,5.26c-3.71,2.21-9.1,18.11-9.95,20.37s-7.04,11.12-19.99,9.29C48.1,98.67,40.34,86.8,43.02,75.12 S88.07,41.61,88.07,41.61z" fill="#A92813"/>
  <path d="M65.12,70.75c0,0-17.6,0.42-23.09-5.35S30.77,46.82,29.22,36.54s-6.62-16.33-9.01-17.88 s-4.86-1.97-5.14-0.42c-0.28,1.55,4.07,6.73,4.86,9.15c1.97,6.05,0.88,20.13,2.53,26.61c1.69,6.63,3.03,8.9,6.76,13.23 c2.78,3.23,7.18,6.34,7.18,6.34s-17.03,4.08-21.82-0.99s-4.22-9.29-3.8-11.4c0.42-2.11,3.8-7.88,2.82-8.45 c-0.99-0.56-7.18,4.22-8.02,10.56s1.25,11.62,4.79,15.49c4.61,5.03,13.34,5.88,18.41,5.46c5.07-0.42,10.17-2.08,10.17-2.08 s-0.14,20.69-10,20.55c-7.46-0.11-8.31-2.53-9.01-3.8c-0.7-1.27-1.43-2.32-1.06,1.72c0.25,2.67,3.38,10.91,13.2,8.8 c8.32-1.79,13.47-9.44,15.17-11.79c1.87-2.57,6.19-8.45,6.19-8.45s-1.67,11.43-1.31,19.52c0.15,3.38,1.03,11.31,7.23,13.98 c6.19,2.67,14.11-0.67,15.52-6.02c1.41-5.35-1.44-8.34-1.87-8.76s-2.39,6.05-2.39,6.05s-5.07,3.38-7.04,0.99s0.42-20.98,0.7-24.92 c0.28-3.94,4.36-0.14,5.77,1.83c1.41,1.97,3.7,6.86,7.18,10.28c5.74,5.65,11.97,8.1,20.82,7.42c9.22-0.71,14.98-4.33,18.07-8.97 c3.1-4.65,3.77-9.26,2.78-10.1c-0.99-0.84-7.74,7.29-9.15,8.41c-1.41,1.13-15.49,0-17.46,0c-1.97,0-2.39-3.52-2.39-3.52 s8.02-2.11,10.84-4.22s10.56-6.55,11.12-19.15c0.43-9.72,0-35.81,0.99-40.03c0.99-4.22,4.74-7.79,3.89-9.2s-4.6,0.94-5.16,1.36 c-0.56,0.42-6.48,3.24-6.62,8.31s-1.83,41.25-4.65,44.2c-2.82,2.96-11.97,8.87-17.03,8.17C78.21,84.13,65.12,70.75,65.12,70.75z" fill="#FFA8A8"/>
  <path d="M118.48,90.32c-1.69-0.14-3.1,2.11-4.79,3.38c-1.69,1.27-5.07,4.5-13.94,4.22 c-8.87-0.28-14.78-10-14.78-10s2.82,0.28,6.05-0.56c3.24-0.84,8.38-3.59,11.61-9.43c3.85-6.94,2.99-24.07,3.03-31.68 c0.05-10.51,3.47-16.1,4.79-17.88c2.25-3.05,5.82-4.79,5.96-5.77c0.14-0.99-4.46-0.42-7.09,1.13c-2.92,1.72-4.36,3.66-4.36,3.66 s-6.76-0.7-10.42-0.7s-10.69,0.54-16.82,1.97c-7.53,1.76-13.16,6.05-14.71,6.34c0,0-5-4.97-13.23,0.7 c-8.59,5.91-2.39,18.44-2.39,18.44s-0.42,1.81-2.67,2.39c-3.24,0.84-8.09-2.32-9.85-7.95c-1.48-4.75-1.13-11.33-2.53-18.93 c-1.41-7.6-5.49-10.98-9.15-12.67c-3.66-1.69-8.31-0.14-7.6,0.84c0.7,0.99,6.05,2.82,9.29,8.73c3.24,5.91,1.69,19.71,5.21,29.56 c3.52,9.85,10,13.09,10,13.09s-3.66,1.69-5.63,2.11c-1.97,0.42-7.32,1.41-12.25,0.39c-5.13-1.06-8.59-4.82-9.15-8.97 c-0.48-3.53,1.83-9.71,0.56-10s-5.81,6.19-5.95,11.54c-0.14,5.35,3.98,11.54,10.17,14.5c6.19,2.96,19.15,0.28,19.15,0.28 s-1.06,1.62-1.2,4.72c-0.14,3.1-1.97,10.03-5.28,12.04c-2.27,1.38-4.29,1.83-5,0c-0.7-1.83,2.89-2.53,2.75-4.36 c-0.14-1.83-3.1-2.29-5.91-0.56c-1.9,1.16-5.07,5.35-3.1,9.85c1.97,4.5,6.86,6.09,12.25,4.65c8.04-2.15,17.32-17.03,20.27-19.57 c2.96-2.53,4.93-1.83,4.93-1.83s-1.41,13.09-1.13,21.96s5.95,14.66,12.25,13.66c7.04-1.13,7.46-6.9,6.34-10 c-0.99-2.71-4.72-3.73-5.77-2.96c-1.37,1.01-0.46,2.67,0.07,3.13c1.27,1.09,0.21,3.63-1.76,3.06c-1.97-0.56-0.14-7.18,0.7-10.42 c0.84-3.24,2.82-10.84,5.07-11.4c2.25-0.56,4.54,3.39,6.62,5.77c3.56,4.08,9.36,7.25,17.63,7.39c10.93,0.19,17.7-6.55,19.25-8.24 C117.49,94.26,120.16,90.46,118.48,90.32z M93.13,60.9c3.24-2.25,6.01-3.28,6.01-3.28s0.09,11.54-4.32,17.5 c-3.65,4.93-7.18,3.8-7.18,3.8s3.63-1.98,3.94-5.77c0.42-5.21-5.07-6.19-5.07-6.19S90.31,62.86,93.13,60.9z" fill="#FF615E"/>
  <path d="M112.09,53.93c0,0,11.59-3.45,10.46-11.9s-9.67-10.32-9.67-10.32s-1.22,4.41-1.03,10.18 C111.94,44.42,112.09,53.93,112.09,53.93z" fill="#FF615E"/>
  <path d="M87.53,75.6c-1.29,2.06-3.49,2.49-5.09,1.49c-1.6-1-1.85-3.01-0.56-5.07 c1.29-2.06,3.93-2.99,5.54-1.99S88.82,73.54,87.53,75.6z" fill="#A52914"/>
  <path d="M65.33,63.5c1.8-0.11,1.2-1.9,0.84-4.29c-0.35-2.39-1.65-8.68,2.04-12.46 c3.1-3.17,6.96-3.13,9.85-1.27c2.18,1.41,3.17,1.97,4.01,0.92c0.56-0.7-0.28-2.04-1.69-3.24c-1.79-1.52-7.95-4.65-13.73,0.14 c-5.46,4.53-4.58,13.3-3.87,16.33C63.5,62.66,64.2,63.57,65.33,63.5z" fill="#A52914"/>
  <path d="M47.66,35.13c-3.66,3.8-4.41,6.84-4.01,11.97c0.35,4.58,1.97,8.09,3.73,7.39 c1.47-0.59,0.84-3.31,0.35-4.72s-1.34-8.17,2.25-11.83c3.59-3.66,7.67-3.17,9.5-2.75s2.6,0.84,3.52-0.21s-0.99-2.75-2.82-3.17 S52.5,30.11,47.66,35.13z" fill="#A52914"/>
  <path d="M82.01,57.66c0,2.92-2.19,5.85-5.07,5.7c-2.82-0.14-4.15-2.86-4.15-5.77s1.69-5.28,4.65-5.49 C80.81,51.86,82.01,54.74,82.01,57.66z" fill="#2C2B2D"/>
  <ellipse cx="108.76" cy="47.48" fill="#FCD4B0" rx="2.21" ry="2.11" transform="matrix(0.1585 -0.9874 0.9874 0.1585 44.6524 147.3403)"/>
  <ellipse cx="110.68" cy="33.5" fill="#FCD4B0" rx="2.16" ry="1.88" transform="matrix(0.3518 -0.9361 0.9361 0.3518 40.391 125.3185)"/>
  <ellipse cx="108.76" cy="63.15" fill="#FCD4B0" rx="2.58" ry="2.67"/>
  <ellipse cx="106.32" cy="78.94" fill="#FCD4B0" rx="2.78" ry="2.62" transform="matrix(0.4055 -0.9141 0.9141 0.4055 -8.9566 144.1102)"/>
  <ellipse cx="110.01" cy="103.45" fill="#FCD4B0" rx="2.11" ry="1.89" transform="matrix(0.9202 -0.3914 0.3914 0.9202 -31.7146 51.3157)"/>
  <ellipse cx="97.58" cy="106.7" fill="#FCD4B0" rx="2.39" ry="2.25"/>
  <ellipse cx="84.74" cy="104.25" fill="#FCD4B0" rx="2.3" ry="2.39"/>
  <ellipse cx="60.9" cy="120.82" fill="#FCD4B0" rx="2.49" ry="2.44"/>
  <ellipse cx="53.58" cy="106.77" fill="#FCD4B0" rx="1.74" ry="2.33" transform="matrix(0.9977 -0.0676 0.0676 0.9977 -7.0946 3.8657)"/>
  <ellipse cx="40.62" cy="102.57" fill="#FCD4B0" rx="2.58" ry="2.3" transform="matrix(0.7345 -0.6787 0.6787 0.7345 -58.8202 54.8054)"/>
  <ellipse cx="28.33" cy="108.25" fill="#FCD4B0" rx="2.58" ry="2.35"/>
  <ellipse cx="25.7" cy="82.44" fill="#FCD4B0" rx="2.3" ry="2.06"/>
  <ellipse cx="13.92" cy="79.05" fill="#FCD4B0" rx="2.16" ry="2.25" transform="matrix(0.5 -0.866 0.866 0.5 -61.4971 51.5787)"/>
  <ellipse cx="6.9" cy="70.33" fill="#FCD4B0" rx="1.86" ry="2.16" transform="matrix(0.9335 -0.3585 0.3585 0.9335 -24.7546 7.1493)"/>
  <ellipse cx="25.2" cy="51.49" fill="#FCD4B0" rx="2.21" ry="2.3"/>
  <ellipse cx="23.97" cy="38.32" fill="#FCD4B0" rx="2.16" ry="2.25"/>
  <ellipse cx="22.17" cy="26.6" fill="#FCD4B0" rx="1.92" ry="2.11" transform="matrix(0.9323 -0.3616 0.3616 0.9323 -8.12 9.8168)"/>
</svg>
